X:168
T:Spike Island Lasses
R:reel
Z:transcribed by Dave Marshall
M:C|
K:Dmix
|| cAGB ADDE | FDAD FGAB | cABG AGFG | Adde fded |
cAGB ADDE | FDAD FGAB | cABG AGFG | Add^c d3e |
f2df ed^ce | dfed ^cAA2 | fedf ed^cB | AB^cA d2^cd |
e~a3 effe | dfed cAAG | Add^c ~d3c | Adde fded |
cAGB A3c | ~B3d A3B | cAGB AGFG | Adde fded |
cAGB A3c | BGGF G3B | cABG AGFG | Add^c d3e |
f2df f2de | f2af gfeg | fdad bdad | fage dcAc |
defg ~a3b | agfa ~g3e | fgfe d^cdA | ~d3e fded ||
